!!!!SEGMENT: pl-wnifc--6439-n--002_anonim--mazur-2.krn
!!!cenid: 18xx:3945
!!!COM: Anonim
!!!COM-rismID: pe30004985
!!!CDT:
!!!CNT:
!!!OTL: Mazur 2
!!!PDT: 1827
!!!AGN:
!!!SMS-siglum: PL-Wnifc
!!!SMS-shelfmark: 6439/n
!!!SMS-shelfwork: 002 W
!!!SMS-variant:
!!!SMS-altvar:
!!!NIFC-rismSourceID: 1001011214
!!!NIFC-islandoraID: nifc:212734
!!!URL-pdf-islandora: https://repozytorium.nifc.pl/islandora/object/nifc:212734/datastream/PDF/view
!!!URL-scan: https://polish.musicsources.pl/pl/lokalizacje/galeria/druki-muzyczne/16857 @EN{Scan on Polish Music Sources Website} @PL{Skany w portalu Dziedzictwo Muzyki Polskiej w otwartym dostępie}
!!!ONB-nifc: str. 2-3 (skan 0002)
!!!AIN: 2 piano
!!!key: A
**kern	**kern
*part2	*part1
*staff2	*staff1
*I"Pianoforte	*I"Pianoforte
*I'pf	*I'pf
*Ipiano	*Ipiano
*ICklav	*ICklav
*clefF4	*clefG2
*k[f#c#g#]	*k[f#c#g#]
*A:	*A:
*M3/8	*M3/8
=1	=1
!	!LO:TX:a:i:t=Mazur.\n    2.
8AA\L 8A	(24a\LL
.	24cc#\
.	24dd\JJ)
8E\ 8A 8c#	8ee\L
8E\J 8A 8c#	16ff#\L
.	16gg#\JJ
=2	=2
8AA\L 8A	16.aa\LL
.	32cc#\JJk
8E\ 8A 8c#	8.ff#\L
8E\J 8A 8c#	.
.	16ee\Jk
=3	=3
8EE/ 8E	16dd\LL
.	16cc#\
8E\L 8G# 8B 8d	16ee\
.	16dd\
8E\J 8G# 8B 8d	16b\
.	16cc#\JJ
=4	=4
8AA\L 8A	16a\LL
.	16cc#\
8E\ 8A 8c#	16ee\
.	16aa\
8E\J 8A 8c#	16ccc#\
.	16eee\JJ
=5	=5
.	8qee/
8AA\L 8A	16ccc#\LL
.	32aa\L
.	32ee\JJJ
8E\ 8A 8c#	8cc#\L
8E\J 8A 8c#	16aa\L
.	16cc#\JJ
=6	=6
8DD/ 8D	8f#\L 8b
8D\L 8F# 8B	16gg#\L
.	16ff#\
8D\J 8F# 8B	16dd\
.	16b\JJ
=7	=7
8EE/ 8E	16a/LL
.	16g#/
8E\L 8G# 8B 8d	16ee/
.	16e/
8E\J 8G# 8B 8d	16f#/
.	16g#/JJ
=8	=8
8A\ 8c#	16b/LL
.	16a/JJ
4AA\ 4A	4a/
=9:|!|:	=9:|!|:
!	!LO:TUP:a
8EE/ 8E	(24b\LL
.	24bb\
.	24aa\JJ)
8E\L 8G# 8B	8gg#\L
8E\J 8G# 8B	16ff#\L
.	16ee\JJ
!!LO:PB:g=original
=10	=10
8BBB/ 8BB	16.dd#X\LL
.	32ff#\JJk
8BB\L 8D#X 8F# 8A	8.aa\L
8BB\J 8D# 8F# 8A	.
.	16gg#\Jk
=11	=11
*	*Xtuplet
8BBB/ 8BB	24ff#\LL
.	24gg#\
.	24ff#\JJ
8BB\L 8D#X 8F# 8A	16dd#X\LL
.	16ff#\
8BB\J 8D# 8F# 8A	16bb\
.	16aa\JJ
=12	=12
8EE/ 8E	16gg#\LL
.	16eeT\J
8E\L 8G# 8B	8ccc#\
8E\J 8G# 8B	8bb\J
=13	=13
*	*tuplet
!	!LO:TUP:a
8EE/ 8E	(24b\LL
.	24bb\
.	24aa\JJ)
8E\L 8G# 8B	8gg#\L
8E\J 8G# 8B	16ff#\L
.	16ee\JJ
=14	=14
8BBB/ 8BB	16dd#X\LL
.	16f#\
8BB\L 8D#X 8F# 8A	16a\
.	16dd#\
8BB\J 8D# 8F# 8A	16ff#\
.	16gg#\JJ
=15	=15
8BBB/ 8BB	(16aa\LL
.	16gg#\
8BB\L 8D#X 8F# 8A	16ff#\
.	16ccc#\
8BB\J 8D# 8F# 8A	16bb\)
.	16dd#X'\JJ
=16	=16
8EE/ 8E	(16ff#\LL
.	16ee\JJ)
4E\ 4G# 4B	4ee\
=17:|!|:	=17:|!|:
8AA\ 8A	16cc#/LL
.	16e/
8E\L 8A 8c#	16a/
.	16cc#/
8E\J 8A 8c#	16ff#/
.	16ee/JJ
=18	=18
8DD/ 8D	16.dd\LL
.	32f#\JJk
8D\L 8F# 8B	8.b\L
8D\J 8F# 8B	.
.	16a\Jk
=19	=19
8EE/ 8E	16g#/LL
.	16e/
8E\L 8B 8d	16g#/
.	16b/
8E\J 8B 8d	16ee/
.	16dd/JJ
!!LO:LB:g=original
=20	=20
8AA\ 8A	16.cc#\LL
.	32e\JJk
8E\L 8A 8c#	8.ff#\L
8E\J 8A 8c#	.
.	16ee\Jk
=21	=21
8AA\ 8A	16cc#\LL
.	16e\
8E\L 8A 8c#	16a\
.	16cc#\
8E\J 8A 8c#	16ff#\
.	16ee\JJ
=22	=22
8DD/ 8D	16f#\LL
.	16b\
8D\L 8F# 8B	16dd\
.	16ff#\
8D\J 8F# 8B	16bb\
.	16aa\JJ
=23	=23
8EE/ 8E	16gg#\LL
.	16ff#\
8E\L 8B 8d	16ee\
.	16ddd\
8E\J 8B 8d	16bb\
.	16gg#\JJ
=24	=24
8AA\ 8A	16bb\LL
.	16aa\JJ
4E\ 4A 4c#	4a/
=25:|!|:	=25:|!|:
*tremolo	*
8D\L 8F# 8A	16.d/LL 16.dd
.	32d/JJk
8D\ 8F# 8A	8dd\L
!	!LO:TUP:a
8D\J 8F# 8A	(24dd\L
.	24cc#\
.	24b\JJ)
=26	=26
8AA\L 8C# 8E 8A	16.a\LL
.	32b\K
8AA\ 8C# 8E 8A	16cc#\
.	16dd\
8AA\J 8C# 8E 8A	16ee\
.	16ff#\JJ
=27	=27
8AA\L 8C# 8E 8A	16.ggn\LL
.	32a\JJk
8AA\ 8C# 8E 8A	8gg\L
8AA\J 8C# 8E 8A	(32aa\LL
.	32gg\
.	32ff#\
.	32ee\JJJ)
=28	=28
8D\L 8F# 8A	16.dd\LL
.	32ee\K
8D\ 8F# 8A	16ff#\
.	16ggn\
8D\J 8F# 8A	16bb\
.	16aa\JJ
=29	=29
!	!LO:TUP:a
8D\L 8F# 8A	(24ff#\LL
.	24aa\
.	24ff#\JJ)
8D\ 8F# 8A	8dd\L
!	!LO:TUP:a
8D\J 8F# 8A	(24dd\L
.	24cc#\
.	24b\JJ)
!!LO:LB:g=original
=30	=30
8AA\L 8C# 8E 8A	16a\LL
.	16cc#\
8AA\ 8C# 8E 8A	16ee\
.	16ggn\
8AA\J 8C# 8E 8A	16bb\
.	16aa\JJ
=31	=31
8AA\L 8C# 8E 8A	16ggn\LL
.	16ff#\
8AA\ 8C# 8E 8A	16ee\
.	16ggg#\
8AA\J 8C# 8E 8A	16eee\
.	16ccc#\JJ
=32	=32
8D\ 8F# 8A	16eee\LL
.	16ddd\JJ
4D\ 4F# 4A	4ddd\
=:|!	=:|!
*-	*-
!!!RDF**kern: > = above
!!!RDF**kern: < = below
!!!system-decoration: [(s1,s2)]
!!!ENC: Solarz Mateusz
!!!END: 2022-07-28
!!!ENC: Urszula Świątek
!!!END: 2022-08-25
!!!YEC: Copyright 2022 Narodowy Instytut Fryderyka Chopina (https://polishscores.org)
!!!YEM: Licence CC BY 4.0 (https://creativecommons.org/licenses/by/4.0)
